third_party/noto/noto_2/emoji_u1f387.svg

<svg enable-background="new 0 0 128 128" viewBox="0 0 128 128" xmlns="http://www.w3.org/2000/svg"><linearGradient id="b" x1="64" x2="64" y1="-33" y2="74.671" gradientUnits="userSpaceOnUse"><stop stop-color="#1976D2" offset=".3483"/><stop stop-color="#0D47A1" offset="1"/></linearGradient><rect x="4" y="4" width="120" height="120" fill="url(#b)"/><radialGradient id="a" cx="65.978" cy="66.775" r="54.152" gradientTransform="matrix(-1.0236 0 0 -1 130.86 128.37)" gradientUnits="userSpaceOnUse"><stop stop-color="#FFF59D" offset=".1884"/><stop stop-color="#FFEE58" offset="1"/></radialGradient><path d="M14.6,113.3l35.99-35.41c0.68-0.69,0.14-1.84-0.84-1.79l-36.59,1.84l38.27-9L11.38,46.89 L51.87,61.6c0.93,0.32,1.77-0.64,1.32-1.49L30.12,18.65l28.68,37.8c0.61,0.77,1.87,0.39,1.94-0.59l2.34-50.64 c0.09-1.32,2.08-1.32,2.16,0l2.39,50.63c0.06,0.97,1.32,1.35,1.94,0.58L98,19L75.19,60.09c-0.45,0.85,0.4,1.8,1.32,1.49l22.01-7.53 c1.4-0.48,2.27,1.48,0.99,2.2L76.96,68.91l38.29,8.93l-36.59-1.77c-0.98-0.05-1.52,1.1-0.84,1.79l25.38,25.81L73.4,82.86 c-0.8-0.56-1.88,0.13-1.7,1.07l7.05,35.02c0,0.01-0.01,0.02-0.02,0.01L64.23,83.34c0-0.01-0.02-0.01-0.02,0l-9.47,23.37 c-0.57,1.42-2.7,0.78-2.4-0.72l4.4-22.05c0.19-0.94-0.9-1.62-1.7-1.06L14.6,113.3z" fill="url(#a)"/><path d="m63.05 101.15c0.3-2.45 1.92-6.77 1.92-6.77s1.83 4.2 2.18 6.77c0.34 2.57-0.92 3.85-2.05 3.85s-2.35-1.4-2.05-3.85z" fill="#FFF9C4"/><path d="m46.64 96.29c1.56-1.94 5.25-4.79 5.25-4.79s-0.68 4.52-1.75 6.88c-1.08 2.36-2.84 2.82-3.8 2.24-0.97-0.57-1.26-2.39 0.3-4.33z" fill="#FFF9C4"/><path d="m34.53 82.9c2.33-0.96 6.97-1.7 6.97-1.7s-2.84 3.63-4.96 5.18c-2.12 1.56-3.88 1.12-4.44 0.15s0.1-2.68 2.43-3.63z" fill="#FFF9C4"/><path d="m30.03 63.97c2.48 0.48 6.76 2.39 6.76 2.39s-4.43 1.46-7.07 1.6c-2.65 0.14-3.86-1.19-3.77-2.29 0.08-1.1 1.6-2.17 4.08-1.7z" fill="#FFF9C4"/><path d="m39.11 46.44c1.81 1.72 4.33 5.6 4.33 5.6s-4.53-1.13-6.82-2.42-2.57-3.05-1.89-3.93c0.69-0.87 2.57-0.97 4.38 0.75z" fill="#FFF9C4"/><path d="m57 36.04c0.43 2.43 0.13 7.02 0.13 7.02s-2.98-3.52-4.06-5.88-0.24-3.95 0.84-4.26c1.09-0.31 2.66 0.69 3.09 3.12z" fill="#FFF9C4"/><path d="m76.95 37.14c-1.07 2.24-3.99 5.84-3.99 5.84s-0.4-4.55 0.1-7.09 2.1-3.38 3.18-3.03c1.07 0.34 1.78 2.04 0.71 4.28z" fill="#FFF9C4"/><path d="m93.29 50.07c-2.1 1.38-6.51 2.98-6.51 2.98s2.07-4.09 3.84-6.02 3.59-1.83 4.33-0.99 0.44 2.65-1.66 4.03z" fill="#FFF9C4"/><path d="m100.06 67.96c-2.53-0.07-7.07-1.26-7.07-1.26s4.12-2.16 6.7-2.73c2.59-0.56 4.01 0.55 4.11 1.65s-1.21 2.4-3.74 2.34z" fill="#FFF9C4"/><path d="m93.94 86.01c-2.11-1.36-5.32-4.73-5.32-4.73s4.66 0.29 7.16 1.15 3.11 2.54 2.59 3.52c-0.5 0.99-2.33 1.42-4.43 0.06z" fill="#FFF9C4"/><path d="m80.32 97.89c-0.88-2.31-1.45-6.88-1.45-6.88s3.59 2.92 5.1 5.05c1.5 2.13 0.98 3.84-0.02 4.34-1.02 0.5-2.75-0.2-3.63-2.51z" fill="#FFF9C4"/><circle cx="31" cy="19.33" r="8" fill="#fff"/><circle cx="10" cy="46.33" r="5" fill="#fff"/><circle cx="14" cy="77.33" r="5" fill="#fff"/><circle cx="16" cy="112.33" r="7" fill="#fff"/><circle cx="53" cy="109.33" r="5" fill="#fff"/><circle cx="79" cy="118.33" r="5" fill="#fff"/><circle cx="106.17" cy="105.5" r="8" fill="#fff"/><circle cx="116" cy="78.33" r="5" fill="#fff"/><circle cx="106.67" cy="52.67" r="7.67" fill="#fff"/><circle cx="97" cy="21.33" r="5" fill="#fff"/><g opacity=".2"><path d="M121,7v114H7V7H121 M124,4H4v120h120V4L124,4z" fill="#424242"/></g></svg>

<svg width="128" height="128" style="enable-background:new 0 0 128 128;" xmlns="http://www.w3.org/2000/svg" xmlns:xlink="http://www.w3.org/1999/xlink">
  <g id="图层_3">
    <linearGradient id="SVGID_1_" gradientUnits="userSpaceOnUse" x1="64" x2="64" y1="-33" y2="74.6713">
      <stop offset="0.3483" style="stop-color:#1976D2"/>
      <stop offset="1" style="stop-color:#0D47A1"/>
    </linearGradient>
    <rect height="120" style="fill:url(#SVGID_1_);" width="120" x="4" y="4"/>
    <radialGradient id="SVGID_3_" cx="65.9775" cy="66.7746" gradientTransform="matrix(-1.0236 0 0 -1 130.8551 128.3708)" gradientUnits="userSpaceOnUse" r="54.1517">
      <stop offset="0.1884" style="stop-color:#FFF59D"/>
      <stop offset="1" style="stop-color:#FFEE58"/>
    </radialGradient>
    <path d="M14.6,113.3l35.99-35.41c0.68-0.69,0.14-1.84-0.84-1.79l-36.59,1.84l38.27-9L11.38,46.89 L51.87,61.6c0.93,0.32,1.77-0.64,1.32-1.49L30.12,18.65l28.68,37.8c0.61,0.77,1.87,0.39,1.94-0.59l2.34-50.64 c0.09-1.32,2.08-1.32,2.16,0l2.39,50.63c0.06,0.97,1.32,1.35,1.94,0.58L98,19L75.19,60.09c-0.45,0.85,0.4,1.8,1.32,1.49l22.01-7.53 c1.4-0.48,2.27,1.48,0.99,2.2L76.96,68.91l38.29,8.93l-36.59-1.77c-0.98-0.05-1.52,1.1-0.84,1.79l25.38,25.81L73.4,82.86 c-0.8-0.56-1.88,0.13-1.7,1.07l7.05,35.02c0,0.01-0.01,0.02-0.02,0.01L64.23,83.34c0-0.01-0.02-0.01-0.02,0l-9.47,23.37 c-0.57,1.42-2.7,0.78-2.4-0.72l4.4-22.05c0.19-0.94-0.9-1.62-1.7-1.06L14.6,113.3z" style="fill:url(#SVGID_3_);"/>
    <path d="M63.05,101.15c0.3-2.45,1.92-6.77,1.92-6.77s1.83,4.2,2.18,6.77c0.34,2.57-0.92,3.85-2.05,3.85 C63.97,105,62.75,103.6,63.05,101.15z" style="fill:#FFF9C4;"/>
    <path d="M46.64,96.29c1.56-1.94,5.25-4.79,5.25-4.79s-0.68,4.52-1.75,6.88c-1.08,2.36-2.84,2.82-3.8,2.24 C45.37,100.05,45.08,98.23,46.64,96.29z" style="fill:#FFF9C4;"/>
    <path d="M34.53,82.9c2.33-0.96,6.97-1.7,6.97-1.7s-2.84,3.63-4.96,5.18c-2.12,1.56-3.88,1.12-4.44,0.15 S32.2,83.85,34.53,82.9z" style="fill:#FFF9C4;"/>
    <path d="M30.03,63.97c2.48,0.48,6.76,2.39,6.76,2.39s-4.43,1.46-7.07,1.6c-2.65,0.14-3.86-1.19-3.77-2.29 C26.03,64.57,27.55,63.5,30.03,63.97z" style="fill:#FFF9C4;"/>
    <path d="M39.11,46.44c1.81,1.72,4.33,5.6,4.33,5.6s-4.53-1.13-6.82-2.42c-2.29-1.29-2.57-3.05-1.89-3.93 C35.42,44.82,37.3,44.72,39.11,46.44z" style="fill:#FFF9C4;"/>
    <path d="M57,36.04c0.43,2.43,0.13,7.02,0.13,7.02s-2.98-3.52-4.06-5.88s-0.24-3.95,0.84-4.26 C55,32.61,56.57,33.61,57,36.04z" style="fill:#FFF9C4;"/>
    <path d="M76.95,37.14c-1.07,2.24-3.99,5.84-3.99,5.84s-0.4-4.55,0.1-7.09c0.5-2.54,2.1-3.38,3.18-3.03 C77.31,33.2,78.02,34.9,76.95,37.14z" style="fill:#FFF9C4;"/>
    <path d="M93.29,50.07c-2.1,1.38-6.51,2.98-6.51,2.98s2.07-4.09,3.84-6.02c1.77-1.93,3.59-1.83,4.33-0.99 S95.39,48.69,93.29,50.07z" style="fill:#FFF9C4;"/>
    <path d="M100.06,67.96c-2.53-0.07-7.07-1.26-7.07-1.26s4.12-2.16,6.7-2.73c2.59-0.56,4.01,0.55,4.11,1.65 C103.9,66.72,102.59,68.02,100.06,67.96z" style="fill:#FFF9C4;"/>
    <path d="M93.94,86.01c-2.11-1.36-5.32-4.73-5.32-4.73s4.66,0.29,7.16,1.15c2.5,0.86,3.11,2.54,2.59,3.52 C97.87,86.94,96.04,87.37,93.94,86.01z" style="fill:#FFF9C4;"/>
    <path d="M80.32,97.89c-0.88-2.31-1.45-6.88-1.45-6.88s3.59,2.92,5.1,5.05c1.5,2.13,0.98,3.84-0.02,4.34 C82.93,100.9,81.2,100.2,80.32,97.89z" style="fill:#FFF9C4;"/>
    <circle cx="31" cy="19.33" r="8" style="fill:#FFFFFF;"/>
    <circle cx="10" cy="46.33" r="5" style="fill:#FFFFFF;"/>
    <circle cx="14" cy="77.33" r="5" style="fill:#FFFFFF;"/>
    <circle cx="16" cy="112.33" r="7" style="fill:#FFFFFF;"/>
    <circle cx="53" cy="109.33" r="5" style="fill:#FFFFFF;"/>
    <circle cx="79" cy="118.33" r="5" style="fill:#FFFFFF;"/>
    <circle cx="106.17" cy="105.5" r="8" style="fill:#FFFFFF;"/>
    <circle cx="116" cy="78.33" r="5" style="fill:#FFFFFF;"/>
    <circle cx="106.67" cy="52.67" r="7.67" style="fill:#FFFFFF;"/>
    <circle cx="97" cy="21.33" r="5" style="fill:#FFFFFF;"/>
    <g style="opacity:0.2;">
      <path d="M121,7v114H7V7H121 M124,4H4v120h120V4L124,4z" style="fill:#424242;"/>
    </g>
  </g>
  <g id="Layer_2_x5F_复制" style="display:none;">
    <g style="display:inline;opacity:0.3;">
      <g style="opacity:0.6;">
        <circle cx="64" cy="64" r="28" style="opacity:0.61;fill:none;stroke:#000000;stroke-width:0.2625;stroke-miterlimit:10;"/>
        <line style="opacity:0.61;fill:none;stroke:#000000;stroke-width:0.25;stroke-miterlimit:10;" x1="84" x2="84" y1="0" y2="128"/>
        <line style="opacity:0.61;fill:none;stroke:#000000;stroke-width:0.25;stroke-miterlimit:10;" x1="44" x2="44" y1="0" y2="128"/>
        <line style="opacity:0.61;fill:none;stroke:#000000;stroke-width:0.25;stroke-miterlimit:10;" x1="64" x2="64" y1="0" y2="128"/>
        <line style="opacity:0.61;fill:none;stroke:#000000;stroke-width:0.25;stroke-miterlimit:10;" x1="128" x2="0" y1="64" y2="64"/>
        <line style="opacity:0.61;fill:none;stroke:#000000;stroke-width:0.25;stroke-miterlimit:10;" x1="128" x2="0" y1="44" y2="44"/>
        <line style="opacity:0.61;fill:none;stroke:#000000;stroke-width:0.25;stroke-miterlimit:10;" x1="128" x2="0" y1="83.75" y2="83.75"/>
        <line style="opacity:0.61;fill:none;stroke:#000000;stroke-width:0.25;stroke-miterlimit:10;" x1="128" x2="0" y1="128" y2="0"/>
        <line style="opacity:0.61;fill:none;stroke:#000000;stroke-width:0.25;stroke-miterlimit:10;" x1="0" x2="128" y1="128" y2="0"/>
        <g style="opacity:0.61;">
          <path d="M64,4.26c32.94,0,59.74,26.8,59.74,59.74S96.94,123.74,64,123.74S4.26,96.94,4.26,64S31.06,4.26,64,4.26 M64,4 C30.86,4,4,30.86,4,64c0,33.14,26.86,60,60,60c33.14,0,60-26.86,60-60C124,30.86,97.14,4,64,4L64,4z"/>
        </g>
        <path d="M107.97,115.97H20.03 c-4.42,0-8.03-3.61-8.03-8.03V20.03c0-4.42,3.61-8.03,8.03-8.03h87.94c4.42,0,8.03,3.61,8.03,8.03v87.91 C116,112.36,112.39,115.97,107.97,115.97z" style="opacity:0.61;fill:none;stroke:#000000;stroke-width:0.2578;stroke-miterlimit:10;"/>
        <path d="M99.75,124H28 c-4.4,0-8-3.6-8-8V12c0-4.4,3.6-8,8-8h71.75c4.4,0,8,3.6,8,8v104C107.75,120.4,104.15,124,99.75,124z" style="opacity:0.61;fill:none;stroke:#000000;stroke-width:0.2567;stroke-miterlimit:10;"/>
        <path d="M113.77,108H14.23 C8.6,108,4,103.4,4,97.77V30.28c0-5.63,4.6-10.23,10.23-10.23h99.54c5.63,0,10.23,4.6,10.23,10.23v67.48 C124,103.4,119.4,108,113.77,108z" style="opacity:0.61;fill:none;stroke:#000000;stroke-width:0.2627;stroke-miterlimit:10;"/>
      </g>
      <g>
        <g style="opacity:0.2;">
          <defs>
            <rect id="SVGID_2_" height="128" style="opacity:0.2;" width="128"/>
          </defs>
          <clipPath id="SVGID_4_">
            <use style="overflow:visible;" xlink:href="#SVGID_2_"/>
          </clipPath>
          <g style="clip-path:url(#SVGID_4_);">
            <g>
              <line style="fill:none;stroke:#000000;stroke-width:0.25;stroke-miterlimit:10;" x1="-28" x2="-28" y1="160" y2="-32"/>
              <line style="fill:none;stroke:#000000;stroke-width:0.25;stroke-miterlimit:10;" x1="-24" x2="-24" y1="160" y2="-32"/>
              <line style="fill:none;stroke:#000000;stroke-width:0.25;stroke-miterlimit:10;" x1="-20" x2="-20" y1="160" y2="-32"/>
              <line style="fill:none;stroke:#000000;stroke-width:0.25;stroke-miterlimit:10;" x1="-16" x2="-16" y1="160" y2="-32"/>
              <line style="fill:none;stroke:#000000;stroke-width:0.25;stroke-miterlimit:10;" x1="-12" x2="-12" y1="160" y2="-32"/>
              <line style="fill:none;stroke:#000000;stroke-width:0.25;stroke-miterlimit:10;" x1="-8" x2="-8" y1="160" y2="-32"/>
              <line style="fill:none;stroke:#000000;stroke-width:0.25;stroke-miterlimit:10;" x1="-4" x2="-4" y1="160" y2="-32"/>
              <line style="fill:none;stroke:#000000;stroke-width:0.25;stroke-miterlimit:10;" x1="0" x2="0" y1="160" y2="-32"/>
              <line style="fill:none;stroke:#000000;stroke-width:0.25;stroke-miterlimit:10;" x1="4" x2="4" y1="160" y2="-32"/>
              <line style="fill:none;stroke:#000000;stroke-width:0.25;stroke-miterlimit:10;" x1="8" x2="8" y1="160" y2="-32"/>
              <line style="fill:none;stroke:#000000;stroke-width:0.25;stroke-miterlimit:10;" x1="12" x2="12" y1="160" y2="-32"/>
              <line style="fill:none;stroke:#000000;stroke-width:0.25;stroke-miterlimit:10;" x1="16" x2="16" y1="160" y2="-32"/>
              <line style="fill:none;stroke:#000000;stroke-width:0.25;stroke-miterlimit:10;" x1="20" x2="20" y1="160" y2="-32"/>
              <line style="fill:none;stroke:#000000;stroke-width:0.25;stroke-miterlimit:10;" x1="24" x2="24" y1="160" y2="-32"/>
              <line style="fill:none;stroke:#000000;stroke-width:0.25;stroke-miterlimit:10;" x1="28" x2="28" y1="160" y2="-32"/>
              <line style="fill:none;stroke:#000000;stroke-width:0.25;stroke-miterlimit:10;" x1="32" x2="32" y1="160" y2="-32"/>
              <line style="fill:none;stroke:#000000;stroke-width:0.25;stroke-miterlimit:10;" x1="36" x2="36" y1="160" y2="-32"/>
              <line style="fill:none;stroke:#000000;stroke-width:0.25;stroke-miterlimit:10;" x1="40" x2="40" y1="160" y2="-32"/>
              <line style="fill:none;stroke:#000000;stroke-width:0.25;stroke-miterlimit:10;" x1="44" x2="44" y1="160" y2="-32"/>
              <line style="fill:none;stroke:#000000;stroke-width:0.25;stroke-miterlimit:10;" x1="48" x2="48" y1="160" y2="-32"/>
              <line style="fill:none;stroke:#000000;stroke-width:0.25;stroke-miterlimit:10;" x1="52" x2="52" y1="160" y2="-32"/>
              <line style="fill:none;stroke:#000000;stroke-width:0.25;stroke-miterlimit:10;" x1="56" x2="56" y1="160" y2="-32"/>
              <line style="fill:none;stroke:#000000;stroke-width:0.25;stroke-miterlimit:10;" x1="60" x2="60" y1="160" y2="-32"/>
              <line style="fill:none;stroke:#000000;stroke-width:0.25;stroke-miterlimit:10;" x1="64" x2="64" y1="160" y2="-32"/>
              <line style="fill:none;stroke:#000000;stroke-width:0.25;stroke-miterlimit:10;" x1="68" x2="68" y1="160" y2="-32"/>
              <line style="fill:none;stroke:#000000;stroke-width:0.25;stroke-miterlimit:10;" x1="72" x2="72" y1="160" y2="-32"/>
              <line style="fill:none;stroke:#000000;stroke-width:0.25;stroke-miterlimit:10;" x1="76" x2="76" y1="160" y2="-32"/>
              <line style="fill:none;stroke:#000000;stroke-width:0.25;stroke-miterlimit:10;" x1="80" x2="80" y1="160" y2="-32"/>
              <line style="fill:none;stroke:#000000;stroke-width:0.25;stroke-miterlimit:10;" x1="84" x2="84" y1="160" y2="-32"/>
              <line style="fill:none;stroke:#000000;stroke-width:0.25;stroke-miterlimit:10;" x1="88" x2="88" y1="160" y2="-32"/>
              <line style="fill:none;stroke:#000000;stroke-width:0.25;stroke-miterlimit:10;" x1="92" x2="92" y1="160" y2="-32"/>
              <line style="fill:none;stroke:#000000;stroke-width:0.25;stroke-miterlimit:10;" x1="96" x2="96" y1="160" y2="-32"/>
              <line style="fill:none;stroke:#000000;stroke-width:0.25;stroke-miterlimit:10;" x1="100" x2="100" y1="160" y2="-32"/>
              <line style="fill:none;stroke:#000000;stroke-width:0.25;stroke-miterlimit:10;" x1="104" x2="104" y1="160" y2="-32"/>
              <line style="fill:none;stroke:#000000;stroke-width:0.25;stroke-miterlimit:10;" x1="108" x2="108" y1="160" y2="-32"/>
              <line style="fill:none;stroke:#000000;stroke-width:0.25;stroke-miterlimit:10;" x1="112" x2="112" y1="160" y2="-32"/>
              <line style="fill:none;stroke:#000000;stroke-width:0.25;stroke-miterlimit:10;" x1="116" x2="116" y1="160" y2="-32"/>
              <line style="fill:none;stroke:#000000;stroke-width:0.25;stroke-miterlimit:10;" x1="120" x2="120" y1="160" y2="-32"/>
              <line style="fill:none;stroke:#000000;stroke-width:0.25;stroke-miterlimit:10;" x1="124" x2="124" y1="160" y2="-32"/>
              <line style="fill:none;stroke:#000000;stroke-width:0.25;stroke-miterlimit:10;" x1="128" x2="128" y1="160" y2="-32"/>
              <line style="fill:none;stroke:#000000;stroke-width:0.25;stroke-miterlimit:10;" x1="132" x2="132" y1="160" y2="-32"/>
              <line style="fill:none;stroke:#000000;stroke-width:0.25;stroke-miterlimit:10;" x1="136" x2="136" y1="160" y2="-32"/>
              <line style="fill:none;stroke:#000000;stroke-width:0.25;stroke-miterlimit:10;" x1="137" x2="137" y1="166.05" y2="-25.95"/>
              <line style="fill:none;stroke:#000000;stroke-width:0.25;stroke-miterlimit:10;" x1="144" x2="144" y1="160" y2="-32"/>
              <line style="fill:none;stroke:#000000;stroke-width:0.25;stroke-miterlimit:10;" x1="148" x2="148" y1="160" y2="-32"/>
              <line style="fill:none;stroke:#000000;stroke-width:0.25;stroke-miterlimit:10;" x1="152" x2="152" y1="160" y2="-32"/>
              <line style="fill:none;stroke:#000000;stroke-width:0.25;stroke-miterlimit:10;" x1="156" x2="156" y1="160" y2="-32"/>
            </g>
            <g>
              <line style="fill:none;stroke:#000000;stroke-width:0.25;stroke-miterlimit:10;" x1="-32" x2="160" y1="-28" y2="-28"/>
              <line style="fill:none;stroke:#000000;stroke-width:0.25;stroke-miterlimit:10;" x1="-32" x2="160" y1="-24" y2="-24"/>
              <line style="fill:none;stroke:#000000;stroke-width:0.25;stroke-miterlimit:10;" x1="-32" x2="160" y1="-20" y2="-20"/>
              <line style="fill:none;stroke:#000000;stroke-width:0.25;stroke-miterlimit:10;" x1="-32" x2="160" y1="-16" y2="-16"/>
              <line style="fill:none;stroke:#000000;stroke-width:0.25;stroke-miterlimit:10;" x1="-32" x2="160" y1="-12" y2="-12"/>
              <line style="fill:none;stroke:#000000;stroke-width:0.25;stroke-miterlimit:10;" x1="-32" x2="160" y1="-8" y2="-8"/>
              <line style="fill:none;stroke:#000000;stroke-width:0.25;stroke-miterlimit:10;" x1="-32" x2="160" y1="-4" y2="-4"/>
              <line style="fill:none;stroke:#000000;stroke-width:0.25;stroke-miterlimit:10;" x1="-32" x2="160" y1="0" y2="0"/>
              <line style="fill:none;stroke:#000000;stroke-width:0.25;stroke-miterlimit:10;" x1="-32" x2="160" y1="4" y2="4"/>
              <line style="fill:none;stroke:#000000;stroke-width:0.25;stroke-miterlimit:10;" x1="-32" x2="160" y1="8" y2="8"/>
              <line style="fill:none;stroke:#000000;stroke-width:0.25;stroke-miterlimit:10;" x1="-32" x2="160" y1="12" y2="12"/>
              <line style="fill:none;stroke:#000000;stroke-width:0.25;stroke-miterlimit:10;" x1="-32" x2="160" y1="16" y2="16"/>
              <line style="fill:none;stroke:#000000;stroke-width:0.25;stroke-miterlimit:10;" x1="-32" x2="160" y1="20" y2="20"/>
              <line style="fill:none;stroke:#000000;stroke-width:0.25;stroke-miterlimit:10;" x1="-32" x2="160" y1="24" y2="24"/>
              <line style="fill:none;stroke:#000000;stroke-width:0.25;stroke-miterlimit:10;" x1="-32" x2="160" y1="28" y2="28"/>
              <line style="fill:none;stroke:#000000;stroke-width:0.25;stroke-miterlimit:10;" x1="-32" x2="160" y1="32" y2="32"/>
              <line style="fill:none;stroke:#000000;stroke-width:0.25;stroke-miterlimit:10;" x1="-32" x2="160" y1="36" y2="36"/>
              <line style="fill:none;stroke:#000000;stroke-width:0.25;stroke-miterlimit:10;" x1="-32" x2="160" y1="40" y2="40"/>
              <line style="fill:none;stroke:#000000;stroke-width:0.25;stroke-miterlimit:10;" x1="-32" x2="160" y1="44" y2="44"/>
              <line style="fill:none;stroke:#000000;stroke-width:0.25;stroke-miterlimit:10;" x1="-32" x2="160" y1="48" y2="48"/>
              <line style="fill:none;stroke:#000000;stroke-width:0.25;stroke-miterlimit:10;" x1="-32" x2="160" y1="52" y2="52"/>
              <line style="fill:none;stroke:#000000;stroke-width:0.25;stroke-miterlimit:10;" x1="-32" x2="160" y1="56" y2="56"/>
              <line style="fill:none;stroke:#000000;stroke-width:0.25;stroke-miterlimit:10;" x1="-32" x2="160" y1="60" y2="60"/>
              <line style="fill:none;stroke:#000000;stroke-width:0.25;stroke-miterlimit:10;" x1="-32" x2="160" y1="64" y2="64"/>
              <line style="fill:none;stroke:#000000;stroke-width:0.25;stroke-miterlimit:10;" x1="-32" x2="160" y1="68" y2="68"/>
              <line style="fill:none;stroke:#000000;stroke-width:0.25;stroke-miterlimit:10;" x1="-32" x2="160" y1="72" y2="72"/>
              <line style="fill:none;stroke:#000000;stroke-width:0.25;stroke-miterlimit:10;" x1="-32" x2="160" y1="76" y2="76"/>
              <line style="fill:none;stroke:#000000;stroke-width:0.25;stroke-miterlimit:10;" x1="-32" x2="160" y1="80" y2="80"/>
              <line style="fill:none;stroke:#000000;stroke-width:0.25;stroke-miterlimit:10;" x1="-32" x2="160" y1="84" y2="84"/>
              <line style="fill:none;stroke:#000000;stroke-width:0.25;stroke-miterlimit:10;" x1="-32" x2="160" y1="88" y2="88"/>
              <line style="fill:none;stroke:#000000;stroke-width:0.25;stroke-miterlimit:10;" x1="-32" x2="160" y1="92" y2="92"/>
              <line style="fill:none;stroke:#000000;stroke-width:0.25;stroke-miterlimit:10;" x1="-32" x2="160" y1="96" y2="96"/>
              <line style="fill:none;stroke:#000000;stroke-width:0.25;stroke-miterlimit:10;" x1="-32" x2="160" y1="100" y2="100"/>
              <line style="fill:none;stroke:#000000;stroke-width:0.25;stroke-miterlimit:10;" x1="-32" x2="160" y1="104" y2="104"/>
              <line style="fill:none;stroke:#000000;stroke-width:0.25;stroke-miterlimit:10;" x1="-32" x2="160" y1="108" y2="108"/>
              <line style="fill:none;stroke:#000000;stroke-width:0.25;stroke-miterlimit:10;" x1="-32" x2="160" y1="112" y2="112"/>
              <line style="fill:none;stroke:#000000;stroke-width:0.25;stroke-miterlimit:10;" x1="-32" x2="160" y1="116" y2="116"/>
              <line style="fill:none;stroke:#000000;stroke-width:0.25;stroke-miterlimit:10;" x1="-32" x2="160" y1="120" y2="120"/>
              <line style="fill:none;stroke:#000000;stroke-width:0.25;stroke-miterlimit:10;" x1="-32" x2="160" y1="124" y2="124"/>
              <line style="fill:none;stroke:#000000;stroke-width:0.25;stroke-miterlimit:10;" x1="-32" x2="160" y1="128" y2="128"/>
              <line style="fill:none;stroke:#000000;stroke-width:0.25;stroke-miterlimit:10;" x1="-32" x2="160" y1="132" y2="132"/>
              <line style="fill:none;stroke:#000000;stroke-width:0.25;stroke-miterlimit:10;" x1="-32" x2="160" y1="136" y2="136"/>
              <line style="fill:none;stroke:#000000;stroke-width:0.25;stroke-miterlimit:10;" x1="-32" x2="160" y1="140" y2="140"/>
              <line style="fill:none;stroke:#000000;stroke-width:0.25;stroke-miterlimit:10;" x1="-32" x2="160" y1="144" y2="144"/>
              <line style="fill:none;stroke:#000000;stroke-width:0.25;stroke-miterlimit:10;" x1="-32" x2="160" y1="148" y2="148"/>
              <line style="fill:none;stroke:#000000;stroke-width:0.25;stroke-miterlimit:10;" x1="-32" x2="160" y1="152" y2="152"/>
              <line style="fill:none;stroke:#000000;stroke-width:0.25;stroke-miterlimit:10;" x1="-32" x2="160" y1="156" y2="156"/>
            </g>
            <path d="M159.75-31.75v191.5h-191.5v-191.5H159.75 M160-32H-32v192h192V-32L160-32z"/>
          </g>
        </g>
        <g>
          <rect height="128" style="opacity:0.3;fill:#F44336;" width="4"/>
          <rect height="128" style="opacity:0.3;fill:#F44336;" width="4" x="124"/>
          <rect height="120" style="opacity:0.3;fill:#F44336;" transform="matrix(-1.836970e-16 1 -1 -1.836970e-16 66 -62)" width="4" x="62" y="-58"/>
          <rect height="120" style="opacity:0.3;fill:#F44336;" transform="matrix(-1.836970e-16 1 -1 -1.836970e-16 190 62)" width="4" x="62" y="66"/>
        </g>
      </g>
    </g>
  </g>
</svg>
